X: 176
T: Dever The Dancer
R: slip jig
M: 9/8
L: 1/8
K:Edor
"Em"BEE BEF "G"G2A|"Em"BEE "G"BAG "D"FGA|"Em"BEE BEF "G"G2A|"G"Bcd "D"ABG FED:|
|: "D"ded "D7"=cAF "G"G2B|"D"ded def "G"gfe|"D"ded "D7"=cAF "G"G2A|"G"Bcd "D"ABG FED:|


